img/icons/blockquote-icon.svg

<svg width="22" height="16" viewBox="0 0 22 16" fill="none" xmlns="http://www.w3.org/2000/svg">
<path d="M0 9.57163H4.71428L1.5714 15.8573H6.28568L9.42856 9.57163V0.143066H0V9.57163Z" fill="#24C046"/>
<path d="M12.5703 0.143066V9.57163H17.2846L14.1417 15.8573H18.856L21.9989 9.57163V0.143066H12.5703Z" fill="#24C046"/>
</svg>

<svg width="22" height="16" fill="none" xmlns="http://www.w3.org/2000/svg"><path d="M0 9.572h4.714l-3.143 6.285h4.715l3.143-6.285V.143H0v9.429zM12.57.143v9.429h4.715l-3.143 6.285h4.714l3.143-6.285V.143H12.57z" fill="#24C046"/></svg>
